X: 3
T: John Doherty's
R: reel
M: 4/4
L: 1/8
K: Amix
EAAB cABd|cABA (3GGG GF|GAGD EAAB|cABd cABG|ABAG EAAB|cABd cABA|(3GGG GF GAGD|EAAB cABd|cABG A2^cd|efec (3ddd cd|efec ~d2cd|efec daed|cABG (3ABA cd|efec (3ddd cd|efec ~d2cd|eage dged|=cAdB =cAAG||


Tune 2120	Setting 15508

